svgs/altos_odyssey.svg

<svg width="192" height="192" viewBox="0 0 192 192" fill="none" xmlns="http://www.w3.org/2000/svg">
<path d="M122.4 170H87.6H69.5C70.2 166 71.8 158 71 158C70.2 155.9 70.4 153.8 69.6 151.7C70.5 150.4 71.4 149 72.3 147.7C86.8 147 101.2 146.8 115.7 146.3C116.2 149.8 116.7 153.2 117.2 156.7C118.5 157.7 119.7 158.8 121 159.8C121.5 163.2 121.9 166.6 122.4 170Z" stroke="black" stroke-width="12" stroke-linecap="round" stroke-linejoin="round"/>
<path d="M122.4 170C121.9 166.6 121.5 163.2 121 159.8C126.2 160.9 133 158.7 135.4 164.7C134.1 166.5 132.7 168.2 131.4 170H122.4Z" stroke="black" stroke-width="12" stroke-linecap="round" stroke-linejoin="round"/>
<path d="M22.0671 42.8C22.0317 42.8 22.0047 42.7668 22.0097 42.7317C24.4381 25.8423 40.299 26.5228 49.4412 37.4137C50.2279 38.3509 50.6 39.559 50.6 40.7826V40.7826C50.6 42.028 50.1877 43.2524 49.4564 44.2605C33.434 66.3476 38.1265 69.3841 22.1176 42.8293C22.1071 42.8118 22.0875 42.8 22.0671 42.8V42.8Z" stroke="black" stroke-width="12" stroke-linecap="round" stroke-linejoin="round"/>
<path d="M38.5 29.7C37.7 29.7 36.9 29.6 36 29.5C36.8 29.5 37.6 29.6 38.5 29.7Z" stroke="black" stroke-width="12" stroke-linecap="round" stroke-linejoin="round"/>
<path d="M57.9001 93.9C57.9001 92.6 57.9 91.3 57.8 90C62 85.5 64.8 76 70.6 74.2C76.2 81.1 78.6 90.2 87 94.2C93.8 98.4 106 91.1 105.9 83C105.9 79 107.5 77.5 110.9 77C119.3 86.1 103.5 124.1 90.5 114.5C85.1 110 79.0001 106 74.9001 100.2C68.7001 91.5 67.7001 91.1 57.9001 94V93.9Z" stroke="black" stroke-width="12" stroke-linecap="round" stroke-linejoin="round"/>
<path d="M35.9999 110.7C39.8999 110.7 43.7999 110.7 47.5999 110.7C48.3999 111.2 49.1999 111.8 49.9999 112.3C47.3999 123.6 43.6999 134.7 42.1999 146.2C23.7999 145.7 16.0999 120 35.9999 110.6V110.7Z" stroke="black" stroke-width="12" stroke-linecap="round" stroke-linejoin="round"/>
<path d="M69.6001 151.7C67.0001 150.8 64.5001 149.9 61.9001 149C61.3001 139.9 61.0001 119.2 69.3001 114.2C71.8001 120.7 71.5001 134.6 68.7001 141.3C67.2001 144.6 68.7001 146.1 71.9001 146.6C71.9001 147 72.0001 147.4 72.2001 147.8C71.3001 149.1 70.4001 150.5 69.5001 151.8L69.6001 151.7Z" stroke="black" stroke-width="12" stroke-linecap="round" stroke-linejoin="round"/>
<path d="M109.3 101.7C110.7 98.2 112 94.7 113.4 91.2C113.8 91.2 114.3 91.2 114.7 91.3C117.2 101.7 118 112.3 121.1 122.5C118.5 122.6 116 122.7 113.4 122.8C111.5 115.9 110.6 108.7 109.3 101.6V101.7Z" stroke="black" stroke-width="12" stroke-linecap="round" stroke-linejoin="round"/>
<path d="M121.1 122.5C131.2 124.5 141.7 125.1 151.6 127.9C160.7 127.9 166.1 132.7 169.1 141C170.8 153.6 162.3 166.6 148.5 163.8C144.2 162.9 139.6 160.9 135.5 164.7C133 158.7 126.2 160.8 121.1 159.8C119.8 158.8 118.6 157.7 117.3 156.7C116.4 151.5 115.7 146.3 116.6 141.1C115.7 135 114.6 128.9 113.5 122.8C116.1 122.7 118.6 122.6 121.2 122.5H121.1Z" stroke="black" stroke-width="12" stroke-linecap="round" stroke-linejoin="round"/>
<path d="M115.7 146.3C101.2 146.8 86.7 147 72.3 147.7C72.2 147.3 72.1 147 72 146.6C68.9 146.1 67.3 144.5 68.8 141.3C71.6 134.6 71.9 120.7 69.4 114.2C61 119.2 61.3 139.9 61.9 149C60 155.9 60.4 162.9 60.5 170H41.2C39 159.7 41.8 149.6 43.4 139.4C46.9 123.8 50.9 108.4 58.1 93.9C68.2 90.4 70.3 92.8 76.1 101.7C91.4 116 97.1 124.6 109.4 101.7C110.8 116.6 117.6 131.4 115.8 146.3H115.7Z" stroke="black" stroke-width="12" stroke-linecap="round" stroke-linejoin="round"/>
<path d="M73.7999 57.2C73.6999 57.6 73.5999 58.1 73.4999 58.5H73.3999C73.3999 58.4 73.7999 57.2 73.7999 57.2Z" stroke="black" stroke-width="12" stroke-linecap="round" stroke-linejoin="round"/>
<path d="M73.4 58.3C73.4 62.8 74.4 67.1 73.4 71.5C77.6 73.8 80.6 77.4 83.6 81.1C91.4 81.6 96.8 76.5 102.7 72.5C103.2 69.5 103.8 66.6 104.3 63.6C103.4 60.1 102.7 56.7 102 53.2C99.4 51.2 97.5 47.9 94 47.6C87.9 48.8 81 44.7 74.9 47.9C74 47.5 73.1 47 72.2 46.6C70.1 50.1 71.1 54.2 70.9 58.6C71.7 58.5 72.6 58.3 73.4 58.3ZM73.4 58.3H73.5C73.6 58 73.7 57.6 73.8 57.1L73.4 58.3Z" stroke="black" stroke-width="12" stroke-linecap="round" stroke-linejoin="round"/>
<path d="M73.4999 58.5H73.3999C73.3999 58.4 73.5999 58.1 73.4999 58.5Z" stroke="black" stroke-width="12" stroke-linecap="round" stroke-linejoin="round"/>
<path d="M114.9 58.4C115.2 59.2 113.7 66.7 113.6 67.7C113.8 71.1 112.8 74.1 111 77C107.6 77.5 105.9 79 106 83C106.2 91.1 93.9 98.5 87.1 94.3C78.7 90.3 76.2 81.2 70.7 74.2C70.7 69.9 71.4 65.2 70.2 61.1C70.5 60.3 70.7 59.4 71 58.6C71.8 58.6 72.7 58.4 73.5 58.3C73.5 62.8 74.6 67 73.6 71.5C77.8 73.9 80.8 77.4 83.8 81.1C91.6 81.6 97 76.4 102.9 72.5C105 65.9 103.9 59.7 102.2 53.2C99.6 51.2 97.7 47.9 94.2 47.6C88 48.7 81.2 44.6 75.1 47.9C74.2 47.5 73.3 47 72.4 46.6C71.5 35.2 81.5 23.8 92.7 22C95.3 23 97.9 23.2 100.7 23C110.1 26.3 112.7 29.9 113.1 39.9C115.4 45.8 114.4 52.3 115 58.5L114.9 58.4Z" stroke="black" stroke-width="12" stroke-linecap="round" stroke-linejoin="round"/>
<path d="M32.6001 73.6H41.4001" stroke="black" stroke-width="8" stroke-miterlimit="10" stroke-linecap="round"/>
</svg>

<svg width="192" height="192" viewBox="0 0 192 192" fill="none" xmlns="http://www.w3.org/2000/svg"><path d="M122.4 170H69.5c.7-4 2.3-12 1.5-12-.8-2.1-.6-4.2-1.4-6.3.9-1.3 1.8-2.7 2.7-4 14.5-.7 28.9-.9 43.4-1.4.5 3.5 1 6.9 1.5 10.4 1.3 1 2.5 2.1 3.8 3.1.5 3.4.9 6.8 1.4 10.2Z" stroke="#000" stroke-width="12" stroke-linecap="round" stroke-linejoin="round"/><path d="M122.4 170c-.5-3.4-.9-6.8-1.4-10.2 5.2 1.1 12-1.1 14.4 4.9-1.3 1.8-2.7 3.5-4 5.3h-9ZM22.067 42.8a.06.06 0 0 1-.057-.068c2.428-16.89 18.289-16.21 27.431-5.318.787.937 1.159 2.145 1.159 3.369v0c0 1.245-.412 2.47-1.144 3.477-16.022 22.088-11.33 25.124-27.338-1.43a.06.06 0 0 0-.05-.03v0Z" stroke="#000" stroke-width="12" stroke-linecap="round" stroke-linejoin="round"/><path d="M38.5 29.7c-.8 0-1.6-.1-2.5-.2.8 0 1.6.1 2.5.2ZM57.9 93.9c0-1.3 0-2.6-.1-3.9 4.2-4.5 7-14 12.8-15.8 5.6 6.9 8 16 16.4 20 6.8 4.2 19-3.1 18.9-11.2 0-4 1.6-5.5 5-6 8.4 9.1-7.4 47.1-20.4 37.5-5.4-4.5-11.5-8.5-15.6-14.3-6.2-8.7-7.2-9.1-17-6.2v-.1ZM36 110.7h11.6c.8.5 1.6 1.1 2.4 1.6-2.6 11.3-6.3 22.4-7.8 33.9-18.4-.5-26.1-26.2-6.2-35.6v.1ZM69.6 151.7c-2.6-.9-5.1-1.8-7.7-2.7-.6-9.1-.9-29.8 7.4-34.8 2.5 6.5 2.2 20.4-.6 27.1-1.5 3.3 0 4.8 3.2 5.3 0 .4.1.8.3 1.2-.9 1.3-1.8 2.7-2.7 4l.1-.1Z" stroke="#000" stroke-width="12" stroke-linecap="round" stroke-linejoin="round"/><path d="M109.3 101.7c1.4-3.5 2.7-7 4.1-10.5.4 0 .9 0 1.3.1 2.5 10.4 3.3 21 6.4 31.2-2.6.1-5.1.2-7.7.3-1.9-6.9-2.8-14.1-4.1-21.2v.1ZM121.1 122.5c10.1 2 20.6 2.6 30.5 5.4 9.1 0 14.5 4.8 17.5 13.1 1.7 12.6-6.8 25.6-20.6 22.8-4.3-.9-8.9-2.9-13 .9-2.5-6-9.3-3.9-14.4-4.9-1.3-1-2.5-2.1-3.8-3.1-.9-5.2-1.6-10.4-.7-15.6-.9-6.1-2-12.2-3.1-18.3 2.6-.1 5.1-.2 7.7-.3h-.1Z" stroke="#000" stroke-width="12" stroke-linecap="round" stroke-linejoin="round"/><path d="M115.7 146.3c-14.5.5-29 .7-43.4 1.4-.1-.4-.2-.7-.3-1.1-3.1-.5-4.7-2.1-3.2-5.3 2.8-6.7 3.1-20.6.6-27.1-8.4 5-8.1 25.7-7.5 34.8-1.9 6.9-1.5 13.9-1.4 21H41.2c-2.2-10.3.6-20.4 2.2-30.6 3.5-15.6 7.5-31 14.7-45.5 10.1-3.5 12.2-1.1 18 7.8 15.3 14.3 21 22.9 33.3 0 1.4 14.9 8.2 29.7 6.4 44.6h-.1ZM73.8 57.2c-.1.4-.2.9-.3 1.3h-.1c0-.1.4-1.3.4-1.3Z" stroke="#000" stroke-width="12" stroke-linecap="round" stroke-linejoin="round"/><path d="M73.4 58.3c0 4.5 1 8.8 0 13.2 4.2 2.3 7.2 5.9 10.2 9.6 7.8.5 13.2-4.6 19.1-8.6.5-3 1.1-5.9 1.6-8.9-.9-3.5-1.6-6.9-2.3-10.4-2.6-2-4.5-5.3-8-5.6-6.1 1.2-13-2.9-19.1.3-.9-.4-1.8-.9-2.7-1.3-2.1 3.5-1.1 7.6-1.3 12 .8-.1 1.7-.3 2.5-.3Zm0 0h.1c.1-.3.2-.7.3-1.2l-.4 1.2Z" stroke="#000" stroke-width="12" stroke-linecap="round" stroke-linejoin="round"/><path d="M73.5 58.5h-.1c0-.1.2-.4.1 0Z" stroke="#000" stroke-width="12" stroke-linecap="round" stroke-linejoin="round"/><path d="M114.9 58.4c.3.8-1.2 8.3-1.3 9.3.2 3.4-.8 6.4-2.6 9.3-3.4.5-5.1 2-5 6 .2 8.1-12.1 15.5-18.9 11.3-8.4-4-10.9-13.1-16.4-20.1 0-4.3.7-9-.5-13.1.3-.8.5-1.7.8-2.5.8 0 1.7-.2 2.5-.3 0 4.5 1.1 8.7.1 13.2 4.2 2.4 7.2 5.9 10.2 9.6 7.8.5 13.2-4.7 19.1-8.6 2.1-6.6 1-12.8-.7-19.3-2.6-2-4.5-5.3-8-5.6-6.2 1.1-13-3-19.1.3-.9-.4-1.8-.9-2.7-1.3-.9-11.4 9.1-22.8 20.3-24.6 2.6 1 5.2 1.2 8 1 9.4 3.3 12 6.9 12.4 16.9 2.3 5.9 1.3 12.4 1.9 18.6l-.1-.1Z" stroke="#000" stroke-width="12" stroke-linecap="round" stroke-linejoin="round"/><path d="M32.6 73.6h8.8" stroke="#000" stroke-width="8" stroke-miterlimit="10" stroke-linecap="round"/></svg>
